X: 1
T: Peterswell, The
M: 4/4
L: 1/8
R: hornpipe
K: Dmaj
dAFA DAFA|dAFA D2 (3def|ecAc ecAc|acAc A2 (3ABc|
dAFA DAFA|dAFA D2 (3def|ecAc acBA|1BABc d2 (3gfe:|2BABc d3 c||
dafd cgec|dafd A3 =c|Bg ~g2 Af ~f2|afec dcBA|
dafd cgec|dafd A2 (3Bcd|e2 ce aecA|1BABc d3 c:|2BABc d2 (3gfe||
